PortableApps/LibreOfficePortable/App/libreoffice/help/media/icon-themes/cmd/sc_displaymasterobjects.svg

<svg viewBox="0 0 16 16" xmlns="http://www.w3.org/2000/svg"><path d="m11.414062 2-10.414062 10.414062v.585938h14v-11z" fill="#4d82b8"/><path d="m12.414062 1-1 1h3.585938v11h-14v-.585938l-1 1v.585938h16v-13z" fill="#808080"/><path d="m0 0v12l12-12zm1 1h8l-8 8z" fill="#4d82b8"/><g fill="#fff"><path d="m1 1h8l-8 8z"/><path d="m6.4140625 7-1 1h7.5859375v3h-10v-.585938l-1 1v.085938.5h12v-.5-4-.5z"/><path d="m10.414062 3-.9999995 1h3.5859375v1h-4.5859375l-1 1h6.5859375v-.5-2-.5z"/></g></svg>

<svg viewBox="0 0 16 16" xmlns="http://www.w3.org/2000/svg">
  <path
     style="fill:#ffffff"
     d="M 11.414062 2 L 1 12.414062 L 1 13 L 15 13 L 15 2 L 11.414062 2 z "
     />
  <path
     style="fill:#4d82b8"
     d="M 12.414062 1 L 11.414062 2 L 15 2 L 15 13 L 1 13 L 1 12.414062 L 0 13.414062 L 0 14 L 16 14 L 16 1 L 12.414062 1 z M 5.4140625 8 L 4.4140625 9 L 14 9 L 14 8 L 5.4140625 8 z M 4 10 L 4 11 L 14 11 L 14 10 L 4 10 z M 3 10.414062 L 2.4140625 11 L 3 11 L 3 10.414062 z "
     />
  <path
     style="fill:#eac282"
     d="M 9.4140625 4 L 7.4140625 6 L 14 6 L 14 4 L 9.4140625 4 z "
     />
  <path
     style="fill:#4d82b8"
     d="M 0,0 V 12 L 12,0 Z M 1,1 H 9 L 1,9 Z" />
  <path
     d="m1 1h8l-8 8z"
     fill="#fff"
     />
</svg>
